papirus/16x16/emblems/emblem-synchronizing.svg

<?xml version="1.0" encoding="UTF-8" standalone="no"?>
<svg
   xmlns:dc="http://purl.org/dc/elements/1.1/"
   xmlns:cc="http://creativecommons.org/ns#"
   xmlns:rdf="http://www.w3.org/1999/02/22-rdf-syntax-ns#"
   xmlns:svg="http://www.w3.org/2000/svg"
   xmlns="http://www.w3.org/2000/svg"
   xmlns:sodipodi="http://sodipodi.sourceforge.net/DTD/sodipodi-0.dtd"
   xmlns:inkscape="http://www.inkscape.org/namespaces/inkscape"
   version="1.1"
   id="svg2"
   viewBox="0 0 16 16"
   width="16"
   height="16"
   inkscape:version="0.91 r13725"
   sodipodi:docname="emblem-synchronizing.svg">
  <sodipodi:namedview
     pagecolor="#ffffff"
     bordercolor="#666666"
     borderopacity="1"
     objecttolerance="10"
     gridtolerance="10"
     guidetolerance="10"
     inkscape:pageopacity="0"
     inkscape:pageshadow="2"
     inkscape:window-width="1600"
     inkscape:window-height="849"
     id="namedview8"
     showgrid="false"
     inkscape:zoom="1"
     inkscape:cx="-40.677966"
     inkscape:cy="24"
     inkscape:window-x="0"
     inkscape:window-y="0"
     inkscape:window-maximized="1"
     inkscape:current-layer="svg2" />
  <defs
     id="defs8" />
  <metadata
     id="metadata4">
    <rdf:RDF>
      <cc:Work
         rdf:about="">
        <dc:format>image/svg+xml</dc:format>
        <dc:type
           rdf:resource="http://purl.org/dc/dcmitype/StillImage" />
        <dc:title></dc:title>
      </cc:Work>
    </rdf:RDF>
  </metadata>
  <circle
     r="7"
     cy="8"
     cx="8"
     id="path3197"
     style="opacity:1;fill:#646464;fill-opacity:1;stroke:none;stroke-width:2;stroke-miterlimit:4;stroke-dasharray:none;stroke-opacity:1" />
  <path
     id="path4249"
     d="M 8.00895,4.0000127 C 8.95587,4.0017927 9.91604,4.2641833 10.66606,4.783408 11.19332,5.3233305 10.18867,5.9015659 9.73619,5.3750656 8.37406,4.6424712 6.45302,4.9003884 5.42819,5.995701 4.88293,6.5392689 4.57572,7.2645735 4.57932,7.9927226 l 0.90017,0 C 4.99948,8.6331811 4.51937,9.2731951 4.03931,9.9132101 3.5592,9.2731951 3.07914,8.6331811 2.59903,7.9931671 l 0.90017,0 C 3.4706,6.2544627 4.87723,4.6006036 6.76552,4.1503273 7.17103,4.0516145 7.58854,3.9963238 8.00905,4.0001905 Z m 3.95174,2.0804012 c 0.48009,0.6401029 0.96017,1.2802503 1.44028,1.9203532 l -0.90017,0 c 0.0255,1.759373 -1.41708,3.4317659 -3.33867,3.8583089 -1.29668,0.321864 -2.76287,0.087 -3.82859,-0.649392 -0.54371,-0.548901 0.47489,-1.121581 0.93157,-0.590324 1.31973,0.711749 3.16787,0.48601 4.20959,-0.530545 0.60332,-0.5525469 0.95053,-1.3179415 0.94588,-2.0880479 l -0.90017,0 C 11.0005,7.3606642 11.48058,6.7205168 11.96069,6.0804139 Z"
     style="fill:#ffffff;enable-background:new"
     inkscape:connector-curvature="0" />
</svg>

<?xml version="1.0" encoding="UTF-8" standalone="no"?>
<svg id="svg2" xmlns:rdf="http://www.w3.org/1999/02/22-rdf-syntax-ns#" xmlns="http://www.w3.org/2000/svg" viewBox="0 0 16 16" height="16" width="16" version="1.1" xmlns:cc="http://creativecommons.org/ns#" xmlns:dc="http://purl.org/dc/elements/1.1/">
 <metadata id="metadata4">
  <rdf:RDF>
   <cc:Work rdf:about="">
    <dc:format>image/svg+xml</dc:format>
    <dc:type rdf:resource="http://purl.org/dc/dcmitype/StillImage"/>
    <dc:title/>
   </cc:Work>
  </rdf:RDF>
 </metadata>
 <circle id="path3197" cy="8" cx="8" r="7" fill="#646464"/>
 <path id="path4249" style="enable-background:new" fill="#fff" d="m8.009 4c0.9469 0.0018 1.907 0.2642 2.657 0.7834 0.527 0.5399-0.477 1.1182-0.9298 0.5917-1.3621-0.7326-3.2832-0.4747-4.308 0.6206-0.5453 0.5436-0.8525 1.2689-0.8489 1.997h0.90017c-0.48 0.6405-0.9601 1.2805-1.4402 1.9205-0.4801-0.64-0.9602-1.28-1.4403-1.92h0.90017c-0.0286-1.7387 1.378-3.3926 3.2663-3.8429 0.4055-0.0987 0.823-0.154 1.2435-0.1501zm3.9517 2.0804c0.48009 0.6401 0.96017 1.2803 1.4403 1.9204h-0.90017c0.0255 1.7594-1.4171 3.4318-3.3387 3.8583-1.2967 0.32186-2.7629 0.087-3.8286-0.64939-0.54371-0.5489 0.47489-1.1216 0.93157-0.59032 1.3197 0.71175 3.1679 0.48601 4.2096-0.53054 0.60332-0.55255 0.95053-1.3179 0.94588-2.088h-0.90017c0.479-0.6402 0.96-1.2804 1.44-1.9205z"/>
</svg>
